**harm	**harte	**kern	**silbe	**kern	**silbe	**rhyme	**timestamp	**phrase	**leadinstrument
*M4/4	*M4/4	*ICvox	*	*ICvox	*	*	*	*	*
*	*	*VRlead	*	*VRharmonize	*	*	*	*	*
*	*	*Hstimme	*	*Nstimme	*	*	*	*	*
*G:	*G:	*G:	*	*G:	*	*	*	*	*
*	*	*M4/4	*	*M4/4	*	*	*	*	*
*	*	*clefG2	*	*clefG2	*	*	*	*	*
1r;	N	r;	.	r;	.	.	0	.	r
=1	=1	=1	=1	=1	=1	=1	=1	=1	=1
*>Letter>A	*>Letter>A	*>Letter>A	*>Letter>A	*>Letter>A	*>Letter>A	*>Letter>A	*>Letter>A	*>Letter>A	*>Letter>A
*>Label>Intro	*>Label>Intro	*>Label>Intro	*>Label>Intro	*>Label>Intro	*>Label>Intro	*>Label>Intro	*>Label>Intro	*>Label>Intro	*>Label>Intro
1I	G:5	1r	.	1r	.	.	0.348	newline	guitar
=2	=2	=2	=2	=2	=2	=2	=2	=2	=2
1I	G:5	1r	.	1r	.	.	1.849	.	guitar
=3	=3	=3	=3	=3	=3	=3	=3	=3	=3
1I	G:5	1r	.	1r	.	.	3.349	.	guitar
=4	=4	=4	=4	=4	=4	=4	=4	=4	=4
1I	G:5	1r	.	1r	.	.	4.849	.	guitar
=5	=5	=5	=5	=5	=5	=5	=5	=5	=5
1I	G:sus4	1r	.	1r	.	.	6.349	newline	guitar
=6	=6	=6	=6	=6	=6	=6	=6	=6	=6
1I	G:sus4	1r	.	1r	.	.	7.846	.	guitar
=7	=7	=7	=7	=7	=7	=7	=7	=7	=7
1I	G:sus4	1r	.	1r	.	.	9.342	.	guitar
=8	=8	=8	=8	=8	=8	=8	=8	=8	=8
1I	G:sus4	1r	.	1r	.	.	10.839	.	guitar
=9	=9	=9	=9	=9	=9	=9	=9	=9	=9
1Vf	D:maj/4	1r	.	4.d 4.f# 4.a	You're	.	12.335	newline	voice
.	.	.	.	[8B [8d [8f#	so	.	.	.	.
.	.	.	.	4B] 4d] 4f#]	_	.	.	.	.
.	.	.	.	[4F# [4A [4d	square,	.	.	.	.
=10	=10	=10	=10	=10	=10	=10	=10	=10	=10
1Vf	D:maj/4	1r	.	1F#] 1A] 1d]	_	.	13.782	.	voice
=11	=11	=11	=11	=11	=11	=11	=11	=11	=11
1I	G:maj	1r	.	4B 4d 4f#	ba	.	15.229	.	voice
.	.	.	.	8r	.	.	.	.	.
.	.	.	.	8c 8e 8a	by	.	.	.	.
.	.	.	.	[2B [2d [2g	_	.	.	.	.
=12	=12	=12	=12	=12	=12	=12	=12	=12	=12
1I	G:maj	1r	.	4.B] 4.d] 4.g]	_	.	16.675	.	voice
.	.	.	.	8r	.	.	.	.	.
.	.	.	.	2r	.	.	.	.	.
=13	=13	=13	=13	=13	=13	=13	=13	=13	=13
1IVc	C:maj/5	1r	.	4.c 4.e 4.g	You're	.	18.122	newline	voice
.	.	.	.	[8G [8c [8e	so	.	.	.	.
.	.	.	.	4G] 4c] 4e]	_	.	.	.	.
.	.	.	.	[4E [4G [4c	square	.	.	.	.
=14	=14	=14	=14	=14	=14	=14	=14	=14	=14
1IVc	C:maj/5	1r	.	1E_ 1G_ 1c_	_	.	19.561	.	voice
=15	=15	=15	=15	=15	=15	=15	=15	=15	=15
1IVc	C:maj/5	1r	.	1E_ 1G_ 1c_	_	.	20.999	.	voice
=16	=16	=16	=16	=16	=16	=16	=16	=16	=16
*	*	*clefC3	*	*	*	*	*	*	*
1IVc	C:maj/5	4r	.	2E_ 2G_ 2c]	_	.	22.438	.	voice
.	.	8aq	_	.	.	.	.	.	.
.	.	[4b-	Oh,	.	.	.	.	.	.
.	.	8b-]	_	8E] 8G] 8B	_	.	.	.	.
.	.	8a	_	8r	.	.	.	.	.
.	.	4g	you	4r	.	.	.	.	.
=17	=17	=17	=17	=17	=17	=17	=17	=17	=17
*>Letter>B	*>Letter>B	*>Letter>B	*>Letter>B	*>Letter>B	*>Letter>B	*>Letter>B	*>Letter>B	*>Letter>B	*>Letter>B
*>Label>Verse	*>Label>Verse	*>Label>Verse	*>Label>Verse	*>Label>Verse	*>Label>Verse	*>Label>Verse	*>Label>Verse	*>Label>Verse	*>Label>Verse
2I	G:maj	4d	don't	1r	.	.	23.877	newline	voice
.	.	4d	like	.	.	.	.	.	.
2IV	C:maj	4e	grea-	.	.	.	24.58	.	voice
.	.	8e	-sy	.	.	.	.	.	.
.	.	[8e	di	.	.	.	.	.	.
=18	=18	=18	=18	=18	=18	=18	=18	=18	=18
1I	G:maj	8e]	_	1r	.	.	25.283	.	voice
.	.	4.d	ners	.	.	.	.	.	.
.	.	4r	.	.	.	.	.	.	.
.	.	8r	.	.	.	.	.	.	.
.	.	8g	you	.	.	.	.	.	.
=19	=19	=19	=19	=19	=19	=19	=19	=19	=19
2I	G:maj	4g	don't	1r	.	.	26.689	.	voice
.	.	4g	like	.	.	.	.	.	.
.	.	8aq	_	.	.	.	.	.	.
2IV	C:maj	4b-	slea-	.	.	.	27.392	.	voice
.	.	4a	-zy	.	.	.	.	.	.
=20	=20	=20	=20	=20	=20	=20	=20	=20	=20
.	.	8gq	_	.	.	.	.	.	.
1I	G:maj	2a	bands	1r	.	A	28.095	.	voice
.	.	4r	.	.	.	.	.	.	.
.	.	8r	.	.	.	.	.	.	.
.	.	8d	you	.	.	.	.	.	.
=21	=21	=21	=21	=21	=21	=21	=21	=21	=21
2I	G:maj	4d	just	1r	.	.	29.501	newline	voice
.	.	8d	wan-	.	.	.	.	.	.
.	.	8d	-na	.	.	.	.	.	.
.	.	8dq	_	.	.	.	.	.	.
2IV	C:maj	4e	go	.	.	B	30.201	.	voice
.	.	8B	to	.	.	.	.	.	.
.	.	8B	a	.	.	.	.	.	.
=22	=22	=22	=22	=22	=22	=22	=22	=22	=22
2I	G:maj	8d	mo-	1r	.	.	30.902	.	voice
.	.	4d	-vie	.	.	.	.	.	.
.	.	8e	show	.	.	B	.	.	.
2IV	C:maj	4r	.	.	.	.	31.603	.	voice
.	.	8r	.	.	.	.	.	.	.
.	.	8d	and	.	.	.	.	.	.
=23	=23	=23	=23	=23	=23	=23	=23	=23	=23
2I	G:maj	4g	sit	1r	.	.	32.304	.	voice
.	.	4g	there	.	.	.	.	.	.
2IV	C:maj	8r	.	.	.	.	33.005	.	voice
.	.	8a	hol-	.	.	.	.	.	.
.	.	8g	-ding	.	.	.	.	.	.
.	.	8aq	_	.	.	.	.	.	.
.	.	[8b	hands	.	.	A	.	.	.
=24	=24	=24	=24	=24	=24	=24	=24	=24	=24
1I	G:maj	4.b]	_	4r	.	.	33.705	.	voice
.	.	.	.	8r	.	.	.	.	.
.	.	8ccq	_	8aq	_	.	.	.	.
.	.	[8dd	you're	[8g [8b	you're	.	.	.	.
.	.	4dd]	_	4g] 4b]	_	.	.	.	.
.	.	4b	so	4d 4g	so	.	.	.	.
=25	=25	=25	=25	=25	=25	=25	=25	=25	=25
*>Letter>C	*>Letter>C	*>Letter>C	*>Letter>C	*>Letter>C	*>Letter>C	*>Letter>C	*>Letter>C	*>Letter>C	*>Letter>C
*>Label>Chorus	*>Label>Chorus	*>Label>Chorus	*>Label>Chorus	*>Label>Chorus	*>Label>Chorus	*>Label>Chorus	*>Label>Chorus	*>Label>Chorus	*>Label>Chorus
1IVm7	C:7	4g	square	4B 4e	square	C	35.107	newline	voice
.	.	2.e	_	2.G 2.c	_	.	.	.	.
=26	=26	=26	=26	=26	=26	=26	=26	=26	=26
4V7	D:7	4r	.	1r	.	.	36.47	.	voice
2.r	N	8A	Ba-	.	.	.	36.811	.	voice
.	.	8F#	-by,	.	.	.	.	.	.
.	.	8d	I	.	.	.	.	.	.
.	.	8B	don't	.	.	.	.	.	.
.	.	4F#	care.	.	.	C	.	.	.
=27	=27	=27	=27	=27	=27	=27	=27	=27	=27
*>Letter>D	*>Letter>D	*>Letter>D	*>Letter>D	*>Letter>D	*>Letter>D	*>Letter>D	*>Letter>D	*>Letter>D	*>Letter>D
*>Label>Interlude	*>Label>Interlude	*>Label>Interlude	*>Label>Interlude	*>Label>Interlude	*>Label>Interlude	*>Label>Interlude	*>Label>Interlude	*>Label>Interlude	*>Label>Interlude
1I	G:5	1r	.	1r	.	.	37.834	newline	guitar
=28	=28	=28	=28	=28	=28	=28	=28	=28	=28
1I	G:5	1r	.	1r	.	.	39.243	.	guitar
=29	=29	=29	=29	=29	=29	=29	=29	=29	=29
1I	G:5	1r	.	1r	.	.	40.652	.	guitar
=30	=30	=30	=30	=30	=30	=30	=30	=30	=30
1I	G:5	2r	.	1r	.	.	42.061	.	guitar
.	.	4r	.	.	.	.	.	.	.
.	.	8r	.	.	.	.	.	.	.
.	.	8B	You	.	.	.	.	.	.
=31	=31	=31	=31	=31	=31	=31	=31	=31	=31
*>Letter>B	*>Letter>B	*>Letter>B	*>Letter>B	*>Letter>B	*>Letter>B	*>Letter>B	*>Letter>B	*>Letter>B	*>Letter>B
*>Label>Verse	*>Label>Verse	*>Label>Verse	*>Label>Verse	*>Label>Verse	*>Label>Verse	*>Label>Verse	*>Label>Verse	*>Label>Verse	*>Label>Verse
2I	G:maj	8c	don't	1r	.	.	43.47	newline	voice
.	.	8d	l-	.	.	.	.	.	.
.	.	4d	-like	.	.	.	.	.	.
2IV	C:maj	8e	go-	.	.	.	44.171	.	voice
.	.	8e	-ing	.	.	.	.	.	.
.	.	8e	to	.	.	.	.	.	.
.	.	[8e	par	.	.	.	.	.	.
=32	=32	=32	=32	=32	=32	=32	=32	=32	=32
1I	G:maj	8e]	_	1r	.	.	44.873	.	voice
.	.	4.d	ties	.	.	.	.	.	.
.	.	4r	.	.	.	.	.	.	.
.	.	8r	.	.	.	.	.	.	.
.	.	8g	to	.	.	.	.	.	.
=33	=33	=33	=33	=33	=33	=33	=33	=33	=33
2I	G:maj	8g	toot	1r	.	.	46.275	.	voice
.	.	8e	and	.	.	.	.	.	.
.	.	4g	talk	.	.	.	.	.	.
.	.	8aq	_	.	.	.	.	.	.
2IV	C:maj	4b-	all	.	.	.	46.976	.	voice
.	.	4a	night	.	.	.	.	.	.
=34	=34	=34	=34	=34	=34	=34	=34	=34	=34
.	.	8gq	_	.	.	.	.	.	.
1I	G:maj	2a	long	1r	.	D	47.678	.	voice
.	.	4r	.	.	.	.	.	.	.
.	.	8r	.	.	.	.	.	.	.
.	.	8d	You	.	.	.	.	.	.
=35	=35	=35	=35	=35	=35	=35	=35	=35	=35
2I	G:maj	4B	just	1r	.	.	49.08	newline	voice
.	.	8d	wan-	.	.	.	.	.	.
.	.	8d	-na	.	.	.	.	.	.
.	.	8dq	_	.	.	.	.	.	.
2IV	C:maj	4~e	park	.	.	E	49.784	.	voice
.	.	8B	where	.	.	.	.	.	.
.	.	8B	it's	.	.	.	.	.	.
=36	=36	=36	=36	=36	=36	=36	=36	=36	=36
2I	G:maj	8r	.	1r	.	.	50.488	.	voice
.	.	4d	nice	.	.	.	.	.	.
.	.	8B	and	.	.	.	.	.	.
2IV	C:maj	8e	dark	.	.	E	51.192	.	voice
.	.	4r	.	.	.	.	.	.	.
.	.	8B	and	.	.	.	.	.	.
=37	=37	=37	=37	=37	=37	=37	=37	=37	=37
2I	G:maj	4g	kiss	1r	.	.	51.896	.	voice
.	.	4g	me	.	.	.	.	.	.
2IV	C:maj	8r	.	.	.	.	52.6	.	voice
.	.	8ccq	_	.	.	.	.	.	.
.	.	8dd	sweet	.	.	.	.	.	.
.	.	4b	and	.	.	.	.	.	.
=38	=38	=38	=38	=38	=38	=38	=38	=38	=38
1I	G:maj	4g	strong	4r	.	D	53.304	.	voice
.	.	8r	.	8r	.	.	.	.	.
.	.	8ccq	_	8aq	_	.	.	.	.
.	.	[8dd	you're	[8g [8b	you're	.	.	.	.
.	.	4dd]	_	4g] 4b]	_	.	.	.	.
.	.	4b	so	4d 4g	so	.	.	.	.
=39	=39	=39	=39	=39	=39	=39	=39	=39	=39
*>Letter>C	*>Letter>C	*>Letter>C	*>Letter>C	*>Letter>C	*>Letter>C	*>Letter>C	*>Letter>C	*>Letter>C	*>Letter>C
*>Label>Chorus	*>Label>Chorus	*>Label>Chorus	*>Label>Chorus	*>Label>Chorus	*>Label>Chorus	*>Label>Chorus	*>Label>Chorus	*>Label>Chorus	*>Label>Chorus
1IVm7	C:7	4g	square	4B 4e	square	C	54.712	newline	voice
.	.	2.e	_	2.G 2.c	_	.	.	.	.
=40	=40	=40	=40	=40	=40	=40	=40	=40	=40
4V7	D:7	4r	.	1r	.	.	56.101	.	voice
2.r	N	8c	Dar-	.	.	.	56.449	.	voice
.	.	8G	-ling,	.	.	.	.	.	.
.	.	8dq	_	.	.	.	.	.	.
.	.	8.e	I	.	.	.	.	.	.
.	.	16dQ	_	.	.	.	.	.	.
.	.	[16e	don't	.	.	.	.	.	.
.	.	8e]	_	.	.	.	.	.	.
.	.	8d	care	.	.	C	.	.	.
=41	=41	=41	=41	=41	=41	=41	=41	=41	=41
1I	G:maj	8A	_	1r	.	.	57.49	.	voice
.	.	8r	.	.	.	.	.	.	.
.	.	4r	.	.	.	.	.	.	.
.	.	2r	.	.	.	.	.	.	.
=42	=42	=42	=42	=42	=42	=42	=42	=42	=42
1I	G:maj	2r	.	1r	.	.	58.879	.	voice
.	.	4r	.	.	.	.	.	.	.
.	.	8r	.	.	.	.	.	.	.
.	.	8d	You	.	.	.	.	.	.
=43	=43	=43	=43	=43	=43	=43	=43	=43	=43
*>Letter>E	*>Letter>E	*>Letter>E	*>Letter>E	*>Letter>E	*>Letter>E	*>Letter>E	*>Letter>E	*>Letter>E	*>Letter>E
*>Label>Bridge	*>Label>Bridge	*>Label>Bridge	*>Label>Bridge	*>Label>Bridge	*>Label>Bridge	*>Label>Bridge	*>Label>Bridge	*>Label>Bridge	*>Label>Bridge
.	.	8dq	_	.	.	.	.	.	.
1IVm7	C:7	4e	don't	1r	.	.	60.268	newline	voice
.	.	4g	know	.	.	.	.	.	.
.	.	4g	a-	.	.	.	.	.	.
.	.	8g	-ny	.	.	.	.	.	.
.	.	8g	dance	.	.	.	.	.	.
=44	=44	=44	=44	=44	=44	=44	=44	=44	=44
1IVm7	C:7	4a	_	1r	.	.	61.662	.	voice
.	.	8a	steps	.	.	.	.	.	.
.	.	8r	.	.	.	.	.	.	.
.	.	8r	.	.	.	.	.	.	.
.	.	8g	that	.	.	.	.	.	.
.	.	8g	are	.	.	.	.	.	.
.	.	8aq	_	.	.	.	.	.	.
.	.	[8b	new	.	.	F	.	.	.
=45	=45	=45	=45	=45	=45	=45	=45	=45	=45
1I	G:maj	2b_	_	1r	.	.	63.057	.	voice
.	.	8b]	_	.	.	.	.	.	.
.	.	8d	_	.	.	.	.	.	.
.	.	8e	_	.	.	.	.	.	.
.	.	[8d	_	.	.	.	.	.	.
=46	=46	=46	=46	=46	=46	=46	=46	=46	=46
1Im7	G:7	4d]	_	1r	.	.	64.451	.	voice
.	.	4B	_	.	.	.	.	.	.
.	.	4r	.	.	.	.	.	.	.
.	.	8r	.	.	.	.	.	.	.
.	.	8d	But	.	.	.	.	.	.
=47	=47	=47	=47	=47	=47	=47	=47	=47	=47
.	.	8dq	_	.	.	.	.	.	.
1IVm7	C:7	4e	no-	1r	.	.	65.845	newline	voice
.	.	8g	-bo-	.	.	.	.	.	.
.	.	8g	-dy	.	.	.	.	.	.
.	.	4g	else	.	.	.	.	.	.
.	.	8e	can	.	.	.	.	.	.
.	.	8aq	_	.	.	.	.	.	.
.	.	[8b	love	.	.	.	.	.	.
=48	=48	=48	=48	=48	=48	=48	=48	=48	=48
1#ivo	C#:dim	8b]	_	1r	.	.	67.211	.	voice
.	.	8gq	_	.	.	.	.	.	.
.	.	4.a	me	.	.	.	.	.	.
.	.	8r	.	.	.	.	.	.	.
.	.	8g	the	.	.	.	.	.	.
.	.	4g	way	.	.	.	.	.	.
=49	=49	=49	=49	=49	=49	=49	=49	=49	=49
.	.	8aq	_	.	.	.	.	.	.
4V	D:maj	4b	you	1r	.	.	68.576	.	voice
.	.	8gq	_	.	.	.	.	.	.
2.r	N	2.a	do!	.	.	F	68.918	.	voice
=50	=50	=50	=50	=50	=50	=50	=50	=50	=50
1r	N	2r	.	1r	.	.	69.942	.	voice
.	.	4r	.	.	.	.	.	.	.
.	.	8r	.	.	.	.	.	.	.
.	.	8B	I	.	.	.	.	.	.
=51	=51	=51	=51	=51	=51	=51	=51	=51	=51
*>Letter>B	*>Letter>B	*>Letter>B	*>Letter>B	*>Letter>B	*>Letter>B	*>Letter>B	*>Letter>B	*>Letter>B	*>Letter>B
*>Label>Verse	*>Label>Verse	*>Label>Verse	*>Label>Verse	*>Label>Verse	*>Label>Verse	*>Label>Verse	*>Label>Verse	*>Label>Verse	*>Label>Verse
2I	G:maj	4d	don't	1r	.	.	71.307	newline	voice
.	.	4d	know	.	.	.	.	.	.
.	.	8dq	_	.	.	.	.	.	.
2IV	C:maj	4e	why	.	.	.	71.998	.	voice
.	.	8c	my	.	.	.	.	.	.
.	.	[8e	heart	.	.	.	.	.	.
=52	=52	=52	=52	=52	=52	=52	=52	=52	=52
1I	G:maj	8e]	_	1r	.	.	72.689	.	voice
.	.	4.d	flips	.	.	.	.	.	.
.	.	2r	.	.	.	.	.	.	.
=53	=53	=53	=53	=53	=53	=53	=53	=53	=53
2I	G:maj	8g	I	1r	.	.	74.07	.	voice
.	.	8g	on-	.	.	.	.	.	.
.	.	4g	-ly	.	.	.	.	.	.
.	.	8aq	_	.	.	.	.	.	.
2IV	C:maj	4b-	know	.	.	.	74.761	.	voice
.	.	4a	it	.	.	.	.	.	.
=54	=54	=54	=54	=54	=54	=54	=54	=54	=54
.	.	8gq	_	.	.	.	.	.	.
1I	G:maj	2a	does	1r	.	G	75.452	.	voice
.	.	4r	.	.	.	.	.	.	.
.	.	8r	.	.	.	.	.	.	.
.	.	8d	I	.	.	.	.	.	.
=55	=55	=55	=55	=55	=55	=55	=55	=55	=55
2I	G:maj	4d	won-	1r	.	.	76.833	newline	voice
.	.	4d	-der	.	.	.	.	.	.
.	.	8dq	_	.	.	.	.	.	.
2IV	C:maj	4e	why	.	.	.	77.524	.	voice
.	.	8r	.	.	.	.	.	.	.
.	.	8B	I	.	.	.	.	.	.
=56	=56	=56	=56	=56	=56	=56	=56	=56	=56
2I	G:maj	4d	love	1r	.	.	78.216	.	voice
.	.	8B	you,	.	.	.	.	.	.
.	.	[8e	ba	.	.	.	.	.	.
2IV	C:maj	8e]	_	.	.	.	78.908	.	voice
.	.	8e	by	.	.	.	.	.	.
.	.	8r	.	.	.	.	.	.	.
.	.	8d	I	.	.	.	.	.	.
=57	=57	=57	=57	=57	=57	=57	=57	=57	=57
2I	G:maj	4g	guess	1r	.	.	79.599	.	voice
.	.	4g	it's	.	.	.	.	.	.
2IV	C:maj	4a	just	.	.	.	80.291	.	voice
.	.	8g	be-	.	.	.	.	.	.
.	.	8aq	_	.	.	.	.	.	.
.	.	[8b	-cause	.	.	G	.	.	.
=58	=58	=58	=58	=58	=58	=58	=58	=58	=58
1I	G:maj	4.b]	_	2r	.	.	80.982	.	voice
.	.	8a	y-	.	.	.	.	.	.
.	.	4b	-you're	4e 4g	You're	.	.	.	.
.	.	4a	so	4d 4f#	so	.	.	.	.
=59	=59	=59	=59	=59	=59	=59	=59	=59	=59
*>Letter>C	*>Letter>C	*>Letter>C	*>Letter>C	*>Letter>C	*>Letter>C	*>Letter>C	*>Letter>C	*>Letter>C	*>Letter>C
*>Label>Chorus	*>Label>Chorus	*>Label>Chorus	*>Label>Chorus	*>Label>Chorus	*>Label>Chorus	*>Label>Chorus	*>Label>Chorus	*>Label>Chorus	*>Label>Chorus
1IVm7	C:7	4g	square	4c 4e	square!	C	82.365	newline	voice
.	.	2.e	_	2.G 2.c	_	.	.	.	.
=60	=60	=60	=60	=60	=60	=60	=60	=60	=60
4V7	D:7	4r	.	1r	.	.	83.732	.	voice
2.r	N	8G	Ba-	.	.	.	84.074	.	voice
.	.	8G	-by,	.	.	.	.	.	.
.	.	8e	I	.	.	.	.	.	.
.	.	8B	don't	.	.	.	.	.	.
.	.	4E	care.	.	.	C	.	.	.
=61	=61	=61	=61	=61	=61	=61	=61	=61	=61
1I	G:5	1r	.	1r	.	.	85.099	.	voice
=62	=62	=62	=62	=62	=62	=62	=62	=62	=62
1I	G:5	1r	.	1r	.	.	86.467	.	voice
=63	=63	=63	=63	=63	=63	=63	=63	=63	=63
*>Letter>E	*>Letter>E	*>Letter>E	*>Letter>E	*>Letter>E	*>Letter>E	*>Letter>E	*>Letter>E	*>Letter>E	*>Letter>E
*>Label>Instrumental	*>Label>Instrumental	*>Label>Instrumental	*>Label>Instrumental	*>Label>Instrumental	*>Label>Instrumental	*>Label>Instrumental	*>Label>Instrumental	*>Label>Instrumental	*>Label>Instrumental
1IVm7	C:7	1r	.	1r	.	.	87.834	newline	horns
=64	=64	=64	=64	=64	=64	=64	=64	=64	=64
1IVm7	C:7	1r	.	1r	.	.	89.22	.	horns
=65	=65	=65	=65	=65	=65	=65	=65	=65	=65
1I	G:maj	1r	.	1r	.	.	90.607	.	horns
=66	=66	=66	=66	=66	=66	=66	=66	=66	=66
1Im7	G:7	1r	.	1r	.	.	91.993	.	horns
=67	=67	=67	=67	=67	=67	=67	=67	=67	=67
1IVm7	C:7	1r	.	1r	.	.	93.38	newline	horns
=68	=68	=68	=68	=68	=68	=68	=68	=68	=68
1#ivo	C#:dim	1r	.	1r	.	.	94.791	.	horns
=69	=69	=69	=69	=69	=69	=69	=69	=69	=69
1V	D:1	1r	.	1r	.	.	96.202	.	horns
=70	=70	=70	=70	=70	=70	=70	=70	=70	=70
1r	N	4r	.	1r	.	.	97.613	.	horns
.	.	4b-	Oh,	.	.	.	.	.	.
.	.	4a	_	.	.	.	.	.	.
.	.	4g	I	.	.	.	.	.	.
=71	=71	=71	=71	=71	=71	=71	=71	=71	=71
*>Letter>B	*>Letter>B	*>Letter>B	*>Letter>B	*>Letter>B	*>Letter>B	*>Letter>B	*>Letter>B	*>Letter>B	*>Letter>B
*>Label>Verse	*>Label>Verse	*>Label>Verse	*>Label>Verse	*>Label>Verse	*>Label>Verse	*>Label>Verse	*>Label>Verse	*>Label>Verse	*>Label>Verse
2I	G:maj	4g	don't	1r	.	.	99.023	newline	voice
.	.	4g	know	.	.	.	.	.	.
.	.	8aq	_	.	.	.	.	.	.
2IV	C:maj	4b-	why	.	.	.	99.722	.	voice
.	.	8a	my	.	.	.	.	.	.
.	.	[8a	heart	.	.	.	.	.	.
=72	=72	=72	=72	=72	=72	=72	=72	=72	=72
1I	G:maj	8a]	_	1r	.	.	100.421	.	voice
.	.	4.g	flips	.	.	.	.	.	.
.	.	4r	.	.	.	.	.	.	.
.	.	8r	.	.	.	.	.	.	.
.	.	8d	I	.	.	.	.	.	.
=73	=73	=73	=73	=73	=73	=73	=73	=73	=73
2I	G:maj	4d	on-	1r	.	.	101.818	.	voice
.	.	4d	-ly	.	.	.	.	.	.
.	.	8f#q	_	.	.	.	.	.	.
2IV	C:maj	8e	know	.	.	.	102.517	.	voice
.	.	4B	it	.	.	.	.	.	.
.	.	8eq	_	.	.	.	.	.	.
.	.	[8d	does	.	.	G	.	.	.
=74	=74	=74	=74	=74	=74	=74	=74	=74	=74
1I	G:maj	2d]	_	1r	.	.	103.215	.	voice
.	.	4r	.	.	.	.	.	.	.
.	.	8r	.	.	.	.	.	.	.
.	.	8A	I	.	.	.	.	.	.
=75	=75	=75	=75	=75	=75	=75	=75	=75	=75
2I	G:maj	4B	won-	1r	.	.	104.613	newline	voice
.	.	4d	-der	.	.	.	.	.	.
.	.	8dq	_	.	.	.	.	.	.
2IV	C:maj	4e	why	.	.	.	105.306	.	voice
.	.	8r	.	.	.	.	.	.	.
.	.	8B	I	.	.	.	.	.	.
=76	=76	=76	=76	=76	=76	=76	=76	=76	=76
2I	G:maj	6d	love	1r	.	.	105.999	.	voice
.	.	6e	you	.	.	.	.	.	.
.	.	[6e	ba	.	.	.	.	.	.
2IV	C:maj	8e]	_	.	.	.	106.693	.	voice
.	.	8e	by	.	.	.	.	.	.
.	.	8r	.	.	.	.	.	.	.
.	.	8d	I	.	.	.	.	.	.
=77	=77	=77	=77	=77	=77	=77	=77	=77	=77
2I	G:maj	4g	guess	1r	.	.	107.386	.	voice
.	.	4g	it's	.	.	.	.	.	.
2IV	C:maj	6r	.	.	.	.	108.08	.	voice
.	.	6b-	just	.	.	.	.	.	.
.	.	6a	be-	.	.	.	.	.	.
=78	=78	=78	=78	=78	=78	=78	=78	=78	=78
.	.	8gq	_	.	.	.	.	.	.
1I	G:maj	4.a	-cause,	2r	.	G	108.773	.	voice
.	.	8a	you're	.	.	.	.	.	.
.	.	4b	_	4e 4g	You're	.	.	.	.
.	.	4a	so	4d 4f#	so	.	.	.	.
=79	=79	=79	=79	=79	=79	=79	=79	=79	=79
*>Letter>C	*>Letter>C	*>Letter>C	*>Letter>C	*>Letter>C	*>Letter>C	*>Letter>C	*>Letter>C	*>Letter>C	*>Letter>C
*>Label>Chorus	*>Label>Chorus	*>Label>Chorus	*>Label>Chorus	*>Label>Chorus	*>Label>Chorus	*>Label>Chorus	*>Label>Chorus	*>Label>Chorus	*>Label>Chorus
1IVm7	C:7	4g	square	4c 4e	square!	C	110.16	newline	voice
.	.	2.e	_	2.G 2.c	_	.	.	.	.
=80	=80	=80	=80	=80	=80	=80	=80	=80	=80
4V7	D:7	2r	.	1r	.	.	111.535	.	voice
2.r	N	.	.	.	.	.	111.878	.	voice
.	.	8e	I	.	.	.	.	.	.
.	.	8B	don't	.	.	.	.	.	.
.	.	4E	care.	.	.	C	.	.	.
=81	=81	=81	=81	=81	=81	=81	=81	=81	=81
*>Letter>A	*>Letter>A	*>Letter>A	*>Letter>A	*>Letter>A	*>Letter>A	*>Letter>A	*>Letter>A	*>Letter>A	*>Letter>A
*>Label>Outro	*>Label>Outro	*>Label>Outro	*>Label>Outro	*>Label>Outro	*>Label>Outro	*>Label>Outro	*>Label>Outro	*>Label>Outro	*>Label>Outro
1Vf	D:maj/4	3f# 3b 3dd	You're	1r	.	.	112.909	newline	voice
.	.	[3d [3f# [3b	so	.	.	.	.	.	.
.	.	6d] 6f#] 6b]	_	.	.	.	.	.	.
.	.	[6G [6d	square!	.	.	.	.	.	.
=82	=82	=82	=82	=82	=82	=82	=82	=82	=82
1Vf	D:maj/4	1G_ 1d_	_	1r	.	.	114.329	.	voice
=83	=83	=83	=83	=83	=83	=83	=83	=83	=83
1Vf	D:maj/4	1G] 1d]	_	1r	.	.	115.748	.	voice
=84	=84	=84	=84	=84	=84	=84	=84	=84	=84
1Vf	D:maj/4	1r	.	1r	.	.	117.167	.	voice
=85	=85	=85	=85	=85	=85	=85	=85	=85	=85
1IVc	C:maj/5	3e 3g 3cc	You're	1r	.	.	118.586	newline	voice
.	.	3c 3e 3g	so	.	.	.	.	.	.
.	.	[3E [3G [3c	square	.	.	.	.	.	.
=86	=86	=86	=86	=86	=86	=86	=86	=86	=86
1IVc	C:maj/5	1E_ 1G_ 1c_	_	1r	.	.	119.973	.	voice
=87	=87	=87	=87	=87	=87	=87	=87	=87	=87
1IVc	C:maj/5	2.E] 2.G] 2.c]	_	1r	.	.	121.359	.	voice
.	.	4r	.	.	.	.	.	.	.
=88	=88	=88	=88	=88	=88	=88	=88	=88	=88
1IVc	C:maj/5	1r	.	1r	.	.	122.745	.	voice
=89	=89	=89	=89	=89	=89	=89	=89	=89	=89
1Vf	D:maj/4	3f# 3a 3dd	You're	1r	.	.	124.131	newline	voice
.	.	[3d [3f# [3a	so	.	.	.	.	.	.
.	.	6d] 6f#] 6a]	_	.	.	.	.	.	.
.	.	[6d [6f#	square!	.	.	.	.	.	.
=90	=90	=90	=90	=90	=90	=90	=90	=90	=90
1Vf	D:maj/4	1d_ 1f#_	_	1r	.	.	125.553	.	voice
=91	=91	=91	=91	=91	=91	=91	=91	=91	=91
1Vf	D:maj/4	2d] 2f#]	_	1r	.	.	126.974	.	voice
.	.	2r	.	.	.	.	.	.	.
=92	=92	=92	=92	=92	=92	=92	=92	=92	=92
1Vf	D:maj/4	1r	.	1r	.	.	128.395	.	voice
=93	=93	=93	=93	=93	=93	=93	=93	=93	=93
1IVc	C:maj/5	3e 3g 3cc	You're	1r	.	.	129.817	newline	voice
.	.	3c 3e 3g	so	.	.	.	.	.	.
.	.	[3E [3G [3c	square	.	.	.	.	.	.
=94	=94	=94	=94	=94	=94	=94	=94	=94	=94
1IVc	C:maj/5	1E_ 1G_ 1c_	_	1r	.	.	131.21	.	voice
=95	=95	=95	=95	=95	=95	=95	=95	=95	=95
1IVc	C:maj/5	4E] 4G] 4c]	_	1r	.	.	132.604	.	voice
.	.	4r	.	.	.	.	.	.	.
.	.	2r	.	.	.	.	.	.	.
=96	=96	=96	=96	=96	=96	=96	=96	=96	=96
1IVc	C:maj/5	1r	.	1r	.	.	133.998	.	voice
=97	=97	=97	=97	=97	=97	=97	=97	=97	=97
1Vf	D:maj/4	3f# 3a 3dd	You're	1r	.	.	135.391	newline	fadeout
.	.	[3d [3f# [3a	so	.	.	.	.	.	.
.	.	6d] 6f#] 6a]	_	.	.	.	.	.	.
.	.	[6d [6f#	square!	.	.	.	.	.	.
=98	=98	=98	=98	=98	=98	=98	=98	=98	=98
1Vf	D:maj/4	1d_ 1f#	_	1r	.	.	136.788	.	fadeout
=99	=99	=99	=99	=99	=99	=99	=99	=99	=99
1Vf	D:maj/4	2d] 2f#]	_	1r	.	.	138.185	.	fadeout
.	.	2r	.	.	.	.	.	.	.
=100	=100	=100	=100	=100	=100	=100	=100	=100	=100
1Vf	D:maj/4	1r	.	1r	.	.	139.582	.	fadeout
=101	=101	=101	=101	=101	=101	=101	=101	=101	=101
1IVc	C:maj/5	3e 3g 3cc	You're	1r	.	.	140.979	newline	fadeout
.	.	3c 3e 3g	so	.	.	.	.	.	.
.	.	[3E [3G [3c	square	.	.	.	.	.	.
=102	=102	=102	=102	=102	=102	=102	=102	=102	=102
1IVc	C:maj/5	1E_ 1G_ 1c_	_	1r	.	.	142.355	.	fadeout
=103	=103	=103	=103	=103	=103	=103	=103	=103	=103
1IVc	C:maj/5	4E] 4G] 4c]	_	1r	.	.	143.731	.	fadeout
.	.	4r	.	.	.	.	.	.	.
.	.	2r	.	.	.	.	.	.	.
=104	=104	=104	=104	=104	=104	=104	=104	=104	=104
1IVc	C:maj/5	1r	.	1r	.	.	145.107	.	fadeout
=105	=105	=105	=105	=105	=105	=105	=105	=105	=105
1Vf	D:maj/4	1r	.	1r	.	.	146.484	newline	fadeout
=106	=106	=106	=106	=106	=106	=106	=106	=106	=106
1Vf	D:maj/4	1r	.	1r	.	.	147.907	.	fadeout
=107	=107	=107	=107	=107	=107	=107	=107	=107	=107
1Vf	D:maj/4	1r	.	1r	.	.	149.331	.	fadeout
=108	=108	=108	=108	=108	=108	=108	=108	=108	=108
1Vf	D:maj/4	1r	.	1r	.	.	150.755	.	fadeout
=109	=109	=109	=109	=109	=109	=109	=109	=109	=109
1IVc	C:maj/5	1r	.	1r	.	.	152.179	newline	voice
=110	=110	=110	=110	=110	=110	=110	=110	=110	=110
1IVc	C:maj/5	1r	.	1r	.	.	153.498	.	voice
=111	=111	=111	=111	=111	=111	=111	=111	=111	=111
1IVc	C:maj/5	1r	.	1r	.	.	154.817	.	voice
=112	=112	=112	=112	=112	=112	=112	=112	=112	=112
1IVc	C:maj/5	1r	.	1r	.	.	156.136	.	voice
1r;	N	1r;	.	1r;	.	.	157.455	.	r
1r;	N	1r;	.	1r;	.	.	158.041	.	r
*-	*-	*-	*-	*-	*-	*-	*-	*-	*-
!!!BillboardChartDate: 1982/12/11
!!!BillboardPeak: 47
!!!BillboardWeeksOnChart: 9
!!!COC: Joni Mitchell
!!!ENC: Nathaniel Condit-Schultz
!!!EST: Awating manual error checking and editing.
!!!OTL: (You're So Square) Baby I Don't Care
!!!RDF**harte: Chris Harte's syntax, used by MIREX
!!!RDF**harmony: **recip + pitch class of root + harmonic quality
!!!RDF**leadinstrument: original McGill primary instrumentation annotation
!!!RDF**phrase: newline = linebreak in original McGill transcription
!!!RDF**timestamp: McGill audio timestamp in seconds
!!!RDT: 2017/01/12/
!!!SampleActualRank: 47
!!!SampleID#: 0417
!!!SampleTargetRank: 47
!!!MBID: daebea92-8798-4d18-bc05-2437d25b00cb
